X:1
T:[ID 1-80a]
T:[ID 1-80a]
T:Bezeichnung standardisiert: Menuett Men.
T:Urheber unbekannt Datum in der hier transkribierten schriftlichen Quelle: vermutlich vor 1767
C:Urheber unbekannt
C:Datum in der hier transkribierten schriftlichen Quelle: vermutlich vor 1767
L:1/8
M:3/4
K:D
V:1 treble 
V:1
 d2 de(3dcB | d2 de(3dcB | d2 f2 a2 | g2 fg f2 |"^O)" A4 FA | G2 EG (3GFD |"^O)" A4 FA | %7
 G2 EG (3GFD | A2 B2 c2 | d6 :: A3 B =c2 | BAGF G2 | B3 c d2 | cBA"^[sic]"G A2 |"^O)" a4 fa | %15
 g2 eg f2 |"^O)" a4 fa | g2 eg f2 | A4 FA | G2 EG F2 | A4 FA | G2 EG F2 | A2 B2 c2 | d6 :| %24

